azure-patterns/svg-blue-black-square.svg

<svg xmlns="http://www.w3.org/2000/svg" viewBox="0 0 157 157">
                                
                            
<path d="M134.096 22.5356V133.964H22.6677V22.5356H134.096ZM148.953 7.67847H7.81055V148.821H148.953V7.67847Z" fill="#0078D4"></path>
<path d="M74.6677 81.9644H7.81055V148.821H74.6677V81.9644Z" fill="#50E6FF"></path>
<path d="M96.9531 7.67847V22.5356H134.096V59.6785H148.953V7.67847H96.9531Z" fill="black"></path>
</svg>

<svg xmlns="http://www.w3.org/2000/svg" viewBox="0 0 157 157"><path d="M134.096 22.536v111.428H22.668V22.536h111.428zm14.857-14.858H7.811v141.143h141.142V7.678z" fill="#0078D4"/><path d="M74.668 81.964H7.81v66.857h66.857V81.964z" fill="#50E6FF"/><path d="M96.953 7.678v14.858h37.143v37.142h14.857v-52h-52z"/></svg>
